X:1
T:Grant heur seroit
T:Grant heur seroit
T:Thomas Crecquillon
C:Thomas Crecquillon
%%score [ 1 2 [ 3 4 ] ]
L:1/8
Q:1/4=80
M:2/2
K:F
V:1 treble nm="Superius" snm="S"
V:2 treble nm="Altus" snm="A"
V:3 treble-8 nm="Tenor 1" snm="T 1"
V:4 treble-8 nm="Tenor 2" snm="T 2"
V:1
 A4 c2 d2 | A2 d2 f2 f2 | e2 d2 c4- | c2 B2 A2 G2 | A4 z2 A2 | c2 d2 A2 f2 | e2 d2 c2 d2 | %7
w: Grant heur se-|roit et grant pro-|spe- * *|* * * ri-|té, grant|heur se- roit et|grant pro- spe- *|
 e2 f3 e d2- |"^#" d2 c2 d2 f2- | f2 d2 e2 c2 | d4 B2 c2 | AB cd e2 f2 | ed cB AG B2- | BA A4 G2 | %14
w: |* ri- té que|_ d'ob- te- nir|sa mais- tres-|se'au _ _ _ _ _|cou- * * * * * *||
 A4 z2 d2 | d4 c4 | A2 A2 d3 c | B3 A G2 G2 | c3 B A3 G | F2 G2 A2 B2- | B2 AG F2 A2 | B2 c2 d4 | %22
w: chier, ay-|ant cre-|dit sans n'y a-|voir re- fus, ay-|ant cre- dit sans|n'y a- voir re-|* * * fus, n'es-|tre que deux,|
 z2 A2 B2 c2 | d2 cB A4 | z2 f2 d2 f2 | ed cB A4 | d4 B2 d2 | cB AG F2 f2 | e2 d4 c2 | %29
w: n'es- tre que|deux, _ _ _|n'es- tre que|deux _ _ _ _|et es- tre|nudz _ _ _ _ à|nudz _ _|
 d2 A2 B2 B2 | c4 c2 d2 | c2 B2 A2 G2 | F2 f2 e2 d2 | c2 B2 A4 | z2 A2 A2 B2 |: A2 c2 c2 d2 | %36
w: _ lors je di-|roi en pu-|re ve- ri- té,|[en pu- re ve-|* ri- té,]|que l'ou- vrai-|ge, que l'ou- vrai-|
 c2 c2 f2 d2 | efgf edcB | AGFE D2 f2- | f2 e4 d2- | d2 c2 d4 | z2 A2 A2 B2 :|"^#" d2 c2 d4- | %43
w: g'en- sei- * gne-|roit _ _ _ _ _ _ _|_ _ _ _ _ l'ou-||* vri- er,|que l'ou- vrai-|(l'ou)- vri- er.|
 d8 |] %44
w: _|
V:2
 z4 z2 D2 | F2 G2 D2 A2 | G2 F2 E2 A2 | G2 F2 E2 D2 | E2 E2 F4 | ED G2 C4 | c2 B2 A2 G2 | %7
w: Grant|heur se- roit et|grant pro- spe- *|||* * té, grant|heur se- roit et|
 cB AG F2 G2 | A4 F4 | B4 G2 A2 | F4 G2 E2 | F2 A2 G2 F2 | z2 E2 F2 G2 | F4 D4- | D4 z2 A2 | %15
w: grant _ _ _ pro- spe-|ri- té|que d'ob- te-|nir sa mais-|tres- * * se|au _ _|cou- chier,|_ ay-|
 A2 G2 A2 A2 | AG F3 E D2 | D2 G3 F E2- | ED C2 F3 E | CD E4 D2- | D2 C2 D2 D2- | D2 E2 F2 G2- | %22
w: ant cre- dit sans|n'y _ a- * voir|re- fus sans n'y|_ _ _ a- *|* * voir _|_ re- fus, n'es-|* tre que deux,|
 G2 F2 D2 F2- | F2 E2 F2 A2 | F2 A2 G2 F2 | G2 A4 F2- | F2 D2 G2 F2 | A6 A2 | B2 G2 A4 | F4 G2 G2 | %30
w: _ et es- *|* tre nudz à|nudz, n'es- tre que|deux,- n'es- tre|_ que deux et|es- tre|nudz à nudz,|lors je di-|
 A4 A2 A2 | A2 G2 F2 E2 | D2 A4 G2 | A2 D4 C2 | D2 F2 E2 E2 |: F8 | z2 F2 F2 F2 | E6 E2 | %38
w: roi en pu-|re ve- ri- té,|[en pu- *|re ve- ri-|té,] que l'ou- vrai-|ge,|que l'ou- vrai-|g'en- sei-|
 F2 F2 G2 A2 | G4 B4 | A4 F4 | z2 F2 E2 E2 :| A4 F4- | F8 |] %44
w: * gne- roit l'ou-||vri- er,|que l'ou- vrai-|vri- er.|_|
V:3
 z8 | z4 z2 A2 | c2 d2 A2 f2 | e2 d2 c2 B2 | A4 d2 c2- | c2 B2 A2 a2 | g2 f2 e2 d2 | c4 d4 | %8
w: |Grant|heur se- roit et|grant pro- spe- ri-|té, grant heur|_ se- roit et|grant pro- spe- *||
 e4 d4 | z4 z2 f2- | f2 d2 e2 c2 | c2 A2 c2 d2 | c6 d2- | dc A2 B4 | A2 f2 f4 | d4 e2 c2 | %16
w: ri- té|que|_ d'ob- te- nir|sa mais- * tres-|se'au cou-||chier, ay- ant|cre- dit sans|
 f3 e d2 d2 | g3 f e3 d | c4 z2 c2 | A2 c4 B2 | G4 A4 | z2 A4 B2 | c2 d4 c2 | g4 f4 | z8 | %25
w: n'y a- voir re-|fus, _ _ _|_ sans|n'y a- voir|re- fus,|n'es- tre|que deux, et|es- tre,||
 z4 z2 f2 | d2 f2 e2 d2 | e2 f3 g af | gf ed e4 | d4 z2 d2 | e2 e2 f2 f2 | e2 d2 c2 B2 | %32
w: n'es-|tre que deux et|es- tre nudz _ _|à _ _ _ _|nudz, lors|je di- roi en|pu- re ve- ri-|
 A3 B c2 d2 | e2 g2 f2 e2 | d2 d2 c2 B2 |: c2 A2 A2 B2 | A2 c4 B2 | c2 G2 A3 B | c2 d4 c2 | %39
w: té, _ _ [en|pu- re ve- ri-|té,] que l'ou- vrai-|ge, que l'ou- vrai-|g'en- sei- gne-|roit- l'ou- * *||
 d2 e2 f2 g2 | e4 d4 | z2 d2 c2 B2 :| e4 d4- | d8 |] %44
w: |vri- er,|que l'ou- vrai-|vri- er.|_|
V:4
 z8 | z8 | z4 z2 A2 | c2 d2 A2 d2- | d2 c2 B2 A2- | A2 G2 F2 z A | c2 d2 A2 B2 | A2 F2 B2 B2 | %8
w: ||Grant|heur se- roit et|_ grant pro- spe-|* ri- té grant|heur se- roit et|grant pro- spe- ri-|
 A4 D4 | z8 | B4 G2 A2 | F2 F2 E2 D2 | A6 G2 | B2 F2 G4 | D2 d2 d4 | B4 A2 A2 | d3 c B3 A | %17
w: * té,||que d'ob- te-|nir sa mais- tres-|se'au- cou-||chier, ay- ant|cre- dit sans|n'y a- voir re-|
 G2 G2 c3 B | A3 G F4- | F2 E2 F2 G2 | E4 D4 | z4 D4 | E2 F2 G2 A2 | B2 c2 d4 | z2 d2 B2 d2 | %25
w: fus, ay- ant cre-|dit sans n'y|_ a- voir _|re- fus,|n'es-|tre que deux, et|es- tre nudz,|et es- tre|
 cB AG F4 | B4 G2 B2 | AG FE D2 d2 | G2 B2 A4 | z2 d2 G2 B2 | A4 F2 F2 | A2 B2 F2 G2 | %32
w: nudz _ _ _ _|et es- tre|nudz _ _ _ _ à|nudz, _ _|lors je di-|roi en pu-|re ve- ri- té,|
 D2 D2 A2 B2 | A2 G2 A4 | z2 D2 A2 G2 |: F2 F2 F2 B,2 | F3 E D4 | C4 cBAG | F2 B4 A2 | %39
w: en pu- re ve-|* ri- té,|que l'ou- vrai-|ge, que- l'ou- vrai-|g'en- sei- gne-|roit l'ou- * * *||
 B2 c2 B2 G2 | A4 D4 | z2 D2 A2 G2 :| A4 D4- | D8 |] %44
w: |vri- er,|que l'ou- vrai-|vri- er.|_|

